X:4
T:The Whinny Hills of Leitrim
R:slip jig
D:Snug in the Blanket,P.O'Brien,J.Gans,D.Sproule 
S:Sonny Brogan, accordion, Co. Dublin
Z:Paul Stewart Cranford (P.S.C.), <http://www.cranfordpub.com>
L:1/8
M:9/8
Q:333
K:Dmix
G|ABA dcA d2 c|ABA dcA GFG|ABA dcA ~d3|eaa ege dB:|
K:G
|:A|GBB GBd gag|GBB GAG FED|GBB GBd g2 g|fgf ege dB:|
